icons/inbox.svg

<svg xmlns="http://www.w3.org/2000/svg" width="24" height="24" viewBox="0 0 24 24">
  <path d="M2,16 L6,16 L6.11662113,16.0067277 C6.61395981,16.0644928 7,16.4871642 7,17 C7,18.6568542 8.34314575,20 10,20 L10,20 L14,20 L14.1762728,19.9949073 C15.75108,19.9036609 17,18.5976809 17,17 L17,17 L17.0067277,16.8833789 C17.0644928,16.3860402 17.4871642,16 18,16 L18,16 L22,16 L22,20 C22,21.1045695 21.1045695,22 20,22 L4,22 C2.8954305,22 2,21.1045695 2,20 L2,16 Z M20,2 C21.1045695,2 22,2.8954305 22,4 L22,14 L18,14 L17.8237272,14.0050927 C16.24892,14.0963391 15,15.4023191 15,17 C15,17.5522847 14.5522847,18 14,18 L14,18 L10,18 L9.88337887,17.9932723 C9.38604019,17.9355072 9,17.5128358 9,17 L9,17 L8.99490731,16.8237272 C8.90366088,15.24892 7.59768088,14 6,14 L6,14 L2,14 L2,4 C2,2.8954305 2.8954305,2 4,2 L20,2 Z"/>
</svg>

<svg xmlns="http://www.w3.org/2000/svg" viewBox="0 0 24 24">
  <path d="M2 16h4.12A1 1 0 0 1 7 17a3 3 0 0 0 3 3h4.18A3 3 0 0 0 17 17v-.12a1 1 0 0 1 1-.88h4v4a2 2 0 0 1-2 2H4a2 2 0 0 1-2-2v-4zM20 2a2 2 0 0 1 2 2v10h-4.18A3 3 0 0 0 15 17a1 1 0 0 1-1 1H9.88A1 1 0 0 1 9 17v-.18A3 3 0 0 0 6 14H2V4c0-1.1.9-2 2-2h16z"/>
</svg>
